!! 00034] TT[TB
!!    Shanxi minge
!! Zh. Ch. M-2800 (M 81/5600) (Peking: LP 33386)
!!!OTL: Ge youmai
!!!ARE: Asia, China, Shanxi, Shenchi
!! Ethnic Group: Han
!! I, 324 (2)
!!!SCT: C1045
!!!YEM: Copyright 1995, estate of Helmut Schaffrath.
**kern
*ICvox
*Ivox
*M2/4
*k[]
*C:
{8dd
4dd
8gg
=1
8.a
16cc
8.a
16cc}
=2
{16a
8.cc
4r
=3
16a
8.cc
4r
=4
8a
8cc
8dd
8e
=5
2d}
=6
{8ee
4dd
16dd
16gg
=7
8.a
16cc
8.a
16cc
=8
8.a
16cc
8.a
16cc}
=9
{16a
8.cc
4r
=10
16a
8.cc
4r
=11
8a
8cc
4dd
=12
8gg
16cc
16a
8a
[8g
=13
2g]}
==
!!!AGN: Shange, Shanqu
!! Plattenhuelle kopiert.  Pause im Stueck!!
!!    Glissandi und Fermaten.
!!!ONB: ESAC (Essen Associative Code) Database: CHINA_002
!!!AMT: simple duple
!!!AIN: vox
!!!EED: Helmut Schaffrath
!!!EEV: 1.0
*-
!!!ONB: Tied note syntax fixed by Craig Sapp, 2004/05/03/
